X:1560
T:"Dunphy's Hornpipe"             1560
C:after Fr. Fielding
B:O'Neill's Music Of Ireland (The 1850) Lyon & Healy, Chicago, 1903 edition
Z:FROM O'NEILL'S TO NOTEWORTHY, FROM NOTEWORTHY TO ABC, MIDI AND .TXT BY VINCE
BRENNAN July 2003 (HTTP://WWW.SOSYOURMOM.COM)
Q:1/4=90
I:abc2nwc
M:2/4
L:1/16
K:G
"_vb"(3(DEF)|G3/2D/2B3/2D/2 G2  (3(gag)|f3/2e/2e3/2d/2 e3/2c/2A3/2G/2|(3(FAF) D3/2G/2 F3/2G/2A3/2c/2| (3(BAG)  (3(AGF) G3/2F/2E3/2D/2|
G3/2D/2B3/2D/2 G2  (3(gag)|f2e3/2d/2 e3/2c/2A3/2G/2|F3/2A/2d3/2B/2 c3/2A/2D3/2F/2|A3/2G/2{A}G3/2F/2 G2:|
B3/2c/2|d3/2c/2B3/2d/2 g3/2d/2B3/2d/2|(3(gag) b3/2f/2 g3/2d/2B3/2d/2| (3(gag) f3/2g/2 e3/2d/2c3/2d/2|(3(efe) d3/2c/2 d2  (3(def)|
(3(gag) d3/2c/2  (3(BcB) G3/2c/2|e3/2c/2A3/2G/2  (3(FAF) D3/2D/2|G3/2B/2d3/2B/2 c3/2A/2D3/2F/2|A3/2G/2{A}G3/2F/2 G2:|
